X: 30
T:The Aman Polka
M:2/4
L:1/16
Q:130
C:John Jones
S:Robin Huw Bowen
R:Polka
A:Wales
Z:brian_martin12345@yahoo.com
K:G
D2|GBd2 g2d2|e2B2 cBA2|Adf2 a2f2|g2B2 cBA2|GBd2 g2d2|e2B2 cBA2|!
A2a2 gfef|g2g2g2:||d2|b2B2 b2B2|bagf edc2|a2A2 a2A2|!
agfe dcBc|b2B2 b2B2|bagf edcB|A2a2 gfef|g2g2g2:||
